!!!COM: Monteverdi, Claudio
!!!CDT: 1567/05/15/-1643/11/29/
!!!OTL: Laudate Dominum omnes gentes
**kern	**kern	**kern	**kern	**kern	**kern	**kern	**kern	**kern	**kern	**kern
!B.C.	!B.C.	!viol	!violin I	!violin II	!bass	!tenor I	!tenor II	!alto	!soprano I	!soprano II
*Icemba	*Icemba	*Iviola	*Ivioln	*Ivioln	*Ivox	*Ivox	*Ivox	*Ivox	*Ivox	*Ivox
*staff11	*staff10	*staff9	*staff8	*staff7	*staff6	*staff5	*staff4	*staff3	*staff2	*staff1
*clefF4	*clefG2	*clefC3	*clefG2	*clefG2	*clefF4	*clefGv2	*clefGv2	*clefG2	*clefG2	*clefG2
*k[f#]	*k[f#]	*k[f#]	*k[f#]	*k[f#]	*k[f#]	*k[f#]	*k[f#]	*k[f#]	*k[f#]	*k[f#]
*M4/4	*M4/4	*M4/4	*M4/4	*M4/4	*M4/4	*M4/4	*M4/4	*M4/4	*M4/4	*M4/4
*MM80	*MM80	*MM80	*MM80	*MM80	*MM80	*MM80	*MM80	*MM80	*MM80	*MM80
=1-	=1-	=1-	=1-	=1-	=1-	=1-	=1-	=1-	=1-	=1-
4GG/	4d/ 4b/ 4dd/	1r	1r	1r	1r	1r	1r	1r	8r	8r
.	.	.	.	.	.	.	.	.	8b\	8dd\
4BB/	4d/ 4g/ 4b/	.	.	.	.	.	.	.	8g/L	8b\L
.	.	.	.	.	.	.	.	.	16g/L	16b\L
.	.	.	.	.	.	.	.	.	16b/JJ	16dd\JJ
4C/	8c/ 8a/L	.	.	.	.	.	.	.	8a/L	8cc\L
.	8B/ 8g/J	.	.	.	.	.	.	.	8g/J	8b\J
4D\	4A/ 4f#/	.	.	.	.	.	.	.	8f#/L	8a/L
.	.	.	.	.	.	.	.	.	16f#/L	16a/L
.	.	.	.	.	.	.	.	.	16f#/JJ	16a/JJ
=2	=2	=2	=2	=2	=2	=2	=2	=2	=2	=2
*	*^	*	*	*	*	*	*	*	*	*
4BB/	4g/	4.d\	1r	1r	1r	1r	1r	1r	1r	(16g/LL	(16b\LL
.	.	.	.	.	.	.	.	.	.	16f#/	16a\
.	.	.	.	.	.	.	.	.	.	16g/	16b\
.	.	.	.	.	.	.	.	.	.	16a/JJ	16cc\JJ
4C/	4.g/	.	.	.	.	.	.	.	.	8b/L)	8dd\L)
.	.	16c\LL	.	.	.	.	.	.	.	8g/J	8ee\J
.	.	16B\JJ	.	.	.	.	.	.	.	.	.
4D\	.	4A\	.	.	.	.	.	.	.	8.g/L	4a/
.	8f#/	.	.	.	.	.	.	.	.	.	.
.	.	.	.	.	.	.	.	.	.	(16f#/Jk	.
4GG/	4g/	4B\	.	.	.	.	.	.	.	4g/)	4g/
=3	=3	=3	=3	=3	=3	=3	=3	=3	=3	=3	=3
4BB/	4.dd/	4g\	1r	16g/LL	16b\LL	1r	1r	1r	1r	1r	1r
.	.	.	.	16f#/	16a\	.	.	.	.	.	.
.	.	.	.	16g/	16b\	.	.	.	.	.	.
.	.	.	.	16a/JJ	16cc\JJ	.	.	.	.	.	.
4C/	.	4.g\	.	8b/L	8dd\L	.	.	.	.	.	.
.	16cc/LL	.	.	8g/J	8ee\J	.	.	.	.	.	.
.	16b/JJ	.	.	.	.	.	.	.	.	.	.
4D\	4a/	.	.	8.g/L	4a/	.	.	.	.	.	.
.	.	8f#\	.	.	.	.	.	.	.	.	.
.	.	.	.	16f#/Jk	.	.	.	.	.	.	.
4GG/	4b/	4g\	.	4g/	4g/	.	.	.	.	.	.
*	*v	*v	*	*	*	*	*	*	*	*	*
=4	=4	=4	=4	=4	=4	=4	=4	=4	=4	=4
4C/	4e/ 4g/	1r	8r	8r	1r	1r	1r	1r	1r	1r
.	.	.	8ee\	8gg\	.	.	.	.	.	.
4E\	4c/ 4g/	.	8cc\L	8ee\L	.	.	.	.	.	.
.	.	.	16cc\L	16ee\L	.	.	.	.	.	.
.	.	.	16ee\JJ	16gg\JJ	.	.	.	.	.	.
4Fn\	8d/ 8fn/L	.	8dd\L	8ffn\L	.	.	.	.	.	.
.	8c/ 8e/J	.	8cc\J	8ee\J	.	.	.	.	.	.
4G\	4B/ 4d/	.	8b\L	8dd\L	.	.	.	.	.	.
.	.	.	16b\L	16dd\L	.	.	.	.	.	.
.	.	.	16b\JJ	16dd\JJ	.	.	.	.	.	.
=5	=5	=5	=5	=5	=5	=5	=5	=5	=5	=5
*	*^	*	*	*	*	*	*	*	*	*
4E\	4.g/	4c\	1r	16cc\LL	16ee\LL	1r	1r	1r	1r	1r	1r
.	.	.	.	16b\	16dd\	.	.	.	.	.	.
.	.	.	.	16cc\	16ee\	.	.	.	.	.	.
.	.	.	.	16dd\JJ	16ffn\JJ	.	.	.	.	.	.
4Fn\	.	4.c\	.	8ee\L	8gg\L	.	.	.	.	.	.
.	16fn/LL	.	.	8cc\J	8aa\J	.	.	.	.	.	.
.	16e/JJ	.	.	.	.	.	.	.	.	.	.
4G\	4d/	.	.	8.cc\L	4dd\	.	.	.	.	.	.
.	.	8B\	.	.	.	.	.	.	.	.	.
.	.	.	.	16b\Jk	.	.	.	.	.	.	.
4C/	4e/	4c\	.	4cc\	4cc\	.	.	.	.	.	.
*	*v	*v	*	*	*	*	*	*	*	*	*
=6	=6	=6	=6	=6	=6	=6	=6	=6	=6	=6
4AA/	4e/ 4cc/ 4ee/	1r	1r	1r	1r	8r	8r	1r	1r	1r
.	.	.	.	.	.	8c\	8e\	.	.	.
4C/	4e/ 4a/ 4cc/	.	.	.	.	8A\L	8c\L	.	.	.
.	.	.	.	.	.	16A\L	16c\L	.	.	.
.	.	.	.	.	.	16c\JJ	16e\JJ	.	.	.
4D\	8d/ 8b/L	.	.	.	.	8B/L	8d\L	.	.	.
.	8c/ 8a/J	.	.	.	.	8A/	8c\	.	.	.
4E\	4B/ 4g#/	.	.	.	.	8G#/	8B\	.	.	.
.	.	.	.	.	.	8G#/J	8B\J	.	.	.
=7	=7	=7	=7	=7	=7	=7	=7	=7	=7	=7
*	*^	*	*	*	*	*	*	*	*	*
4C/	4a/	4.e\	1r	1r	1r	1r	(16A/LL	(16c\LL	1r	1r	1r
.	.	.	.	.	.	.	16G/	16B\	.	.	.
.	.	.	.	.	.	.	16A/	16c\	.	.	.
.	.	.	.	.	.	.	16B/JJ	16d\JJ	.	.	.
4D\	4.a/	.	.	.	.	.	8c\L)	8e\L)	.	.	.
.	.	16d\LL	.	.	.	.	8A\J	8c\J	.	.	.
.	.	16c\JJ	.	.	.	.	.	.	.	.	.
4E\	.	4B\	.	.	.	.	8.A/L	8.B\L	.	.	.
.	8g#/	.	.	.	.	.	.	.	.	.	.
.	.	.	.	.	.	.	16G#/Jk	16B\Jk	.	.	.
4AA/	4a/	4c\	.	.	.	.	4A/	4A/	.	.	.
=8	=8	=8	=8	=8	=8	=8	=8	=8	=8	=8	=8
4C/	4.ee/	4a\	1r	16a/LL	16cc\LL	1r	1r	1r	1r	1r	1r
.	.	.	.	16g/	16b\	.	.	.	.	.	.
.	.	.	.	16a/	16cc\	.	.	.	.	.	.
.	.	.	.	16b/JJ	16dd\JJ	.	.	.	.	.	.
4D\	.	4.a\	.	8cc\L	8ee\L	.	.	.	.	.	.
.	16dd/LL	.	.	8a\J	8cc\J	.	.	.	.	.	.
.	16cc/JJ	.	.	.	.	.	.	.	.	.	.
4E\	4b/	.	.	8.a/L	4b\	.	.	.	.	.	.
.	.	8g#\	.	.	.	.	.	.	.	.	.
.	.	.	.	16g#/Jk	.	.	.	.	.	.	.
4AA/	4cc/	4a\	.	4a/	4a/	.	.	.	.	.	.
*	*v	*v	*	*	*	*	*	*	*	*	*
=9	=9	=9	=9	=9	=9	=9	=9	=9	=9	=9
4D\	4fn/ 4a/	1r	8r	8r	1r	1r	1r	1r	1r	1r
.	.	.	8ffn\	8aa\	.	.	.	.	.	.
4Fn\	4f/ 4a/	.	8dd\L	8ffn\L	.	.	.	.	.	.
.	.	.	16dd\L	16ff\L	.	.	.	.	.	.
.	.	.	16ff\JJ	16aa\JJ	.	.	.	.	.	.
4G\	8e/ 8g/L	.	8ee\L	8gg\L	.	.	.	.	.	.
.	8d/ 8f/J	.	8dd\	8ff\	.	.	.	.	.	.
4A\	4c#/ 4e/	.	8cc#\	8ee\	.	.	.	.	.	.
.	.	.	8cc#\J	8ee\J	.	.	.	.	.	.
=10	=10	=10	=10	=10	=10	=10	=10	=10	=10	=10
*	*^	*	*	*	*	*	*	*	*	*
4Fn\	4.a/	4d\	1r	16dd\LL	16ffn\LL	1r	1r	1r	1r	1r	1r
.	.	.	.	16cc\	16ee\	.	.	.	.	.	.
.	.	.	.	16dd\	16ff\	.	.	.	.	.	.
.	.	.	.	16ee\JJ	16gg\JJ	.	.	.	.	.	.
4G\	.	4d\	.	8ffn\L	8aa\L	.	.	.	.	.	.
.	16g/LL	.	.	16ee\L	16gg\L	.	.	.	.	.	.
.	16fn/JJ	.	.	16dd\JJ	16ff\JJ	.	.	.	.	.	.
*	*v	*v	.	*	*	.	.	.	.	.	.
4A\	4c#/ 4e/	.	4cc#\	4ee\	.	.	.	.	.	.
4D\	4d/ 4f#/	.	4dd\	4dd\	.	.	.	.	.	.
=11	=11	=11	=11	=11	=11	=11	=11	=11	=11	=11
4GG/	4B/ 4g/	1r	1r	1r	1r	1r	1r	1r	8r	8r
.	.	.	.	.	.	.	.	.	8b\	8dd\
4BB/	4g/ 4dd/	.	.	.	.	.	.	.	8g/L	8b\L
.	.	.	.	.	.	.	.	.	16g/L	16b\L
.	.	.	.	.	.	.	.	.	16b/JJ	16dd\JJ
4C/	8a/ 8cc/L	.	.	.	.	.	.	.	8a/L	8cc\L
.	8g/ 8b/J	.	.	.	.	.	.	.	8g/	8b\
4D\	4a/	.	.	.	.	.	.	.	8f#/	8a\
.	.	.	.	.	.	.	.	.	8f#/J	8a\J
=12	=12	=12	=12	=12	=12	=12	=12	=12	=12	=12
4GG/	4d/ 4b/	1r	1r	1r	1r	8r	8r	1r	1r	1r
.	.	.	.	.	.	8B\	8d\	.	.	.
4BB/	4d/ 4g/	.	.	.	.	8G/L	8B\L	.	.	.
.	.	.	.	.	.	16G/L	16B\L	.	.	.
.	.	.	.	.	.	16B/JJ	16d\JJ	.	.	.
4C/	8c/ 8a/L	.	.	.	.	8A/L	8c\L	.	.	.
.	8B/ 8g/J	.	.	.	.	8G/	8B\	.	.	.
4D\	4A/ 4f#/	.	.	.	.	8F#/	8A\	.	.	.
.	.	.	.	.	.	8F#/J	8A\J	.	.	.
=13	=13	=13	=13	=13	=13	=13	=13	=13	=13	=13
4r	4r	4r	4r	4r	4r	4r	4r	4r	4r	4r
2G\	2d/ 2g/ 2b/	2g\	2g/	2dd\	2G\	2d\	2B\	2d/	2g/	2g/
4G\	4d/ 4g/ 4b/	4g\	4g/	4dd\	4G\	4d\	4B\	4d/	4g/	4g/
=14	=14	=14	=14	=14	=14	=14	=14	=14	=14	=14
2E\	2e/ 2g#/ 2b/	2g#\	2b\	2ee\	2E\	2e\	2B\	2e/	2g#/	2b\
2E\	2e/ 2g#/ 2b/	2g#\	2b\	2ee\	2E\	2e\	2B\	2e/	2g#/	2b\
=15	=15	=15	=15	=15	=15	=15	=15	=15	=15	=15
4r	4r	4r	4r	4r	4r	4r	4r	4r	4r	4r
4E\	4e/ 4g#/ 4b/	4g#\	4b\	4ee\	4E\	4e\	4B\	4e/	4g#/	4b\
4.E\	4.e/ 4.g#/ 4.b/	4.g#\	4.b\	4.ee\	4.E\	4.e\	4.B\	4.e/	4.g#/	4.b\
8E\	8e/ 8g#/ 8cc#/	8g#\	8cc#\	8ee\	8E\	8e\	8E/	8e/	8g#/	8cc#\
=16	=16	=16	=16	=16	=16	=16	=16	=16	=16	=16
4.C#/	4.e/ 4.a/	4.a\	4.a/	4.ee\	4.C#/	4.A/	4.E/	4.e/	4.a/	4.a/
8C#/	8e/ 8a/	8e\	8a/	8ee\	8C#/	8A/	8E/	8e/	8e/	8a/
2C#/	2e/ 2a/	2e\	2a/	2ee\	2C#/	2A/	2E/	2e/	2e/	2a/
=17	=17	=17	=17	=17	=17	=17	=17	=17	=17	=17
4r	4r	4r	4r	4r	4r	4r	4r	4r	4r	4r
4C#/	4e/ 4a/	4e\	4a/	4ee\	4C#/	4E/	4A/	4e/	4e/	4a/
4.C#/	4.e/ 4.a/	4.e\	4.a/	4.ee\	4.C#/	4.E/	4.A/	4.e/	4.e/	4.a/
8C#/	8e/ 8a/	8e\	8a/	8ee\	8C#/	8E/	8A/	8e/	8e/	8a/
=18	=18	=18	=18	=18	=18	=18	=18	=18	=18	=18
4AA/	4a/ 4cc#/ 4ee/	4c#\	4a/	4ee\	4AA/	4E/	4c#\	4e/	4a/	4ee\
4AA/	4a/ 4cc#/ 4ee/	4c#\	4a/	4ee\	4AA/	4E/	4c#\	4e/	4a/	4ee\
2r	2r	2r	2r	2r	2r	2r	2r	2r	2r	2r
=19	=19	=19	=19	=19	=19	=19	=19	=19	=19	=19
1FF#	1d 1a [1dd	1d	1a	1dd	1FF#	1A	[1d	[1d	1a	[1dd
=20	=20	=20	=20	=20	=20	=20	=20	=20	=20	=20
1GG	2d/ 2b/ 2dd/]	2g\	2b\	2dd\	1GG	1G	2d\]	2d/]	2b\	2dd\]
.	2d/ 2g/ 2b/	2b\	2dd\	[2gg\	.	.	2d\	2d/	[2g/	2b\
=21	=21	=21	=21	=21	=21	=21	=21	=21	=21	=21
*	*^	*	*	*	*	*	*	*	*	*
2.D\	2.a/	2g\	1a	2.dd\	2gg\]	2.D\	2A/	2.d\	2.d/	2g/]	2.a/
.	.	2f#\	.	.	2ff#\	.	2D/	.	.	2f#/	.
4D\	4d/ 4a/	.	.	4dd\	.	4D\	.	4d\	4d/	.	4a/
=22	=22	=22	=22	=22	=22	=22	=22	=22	=22	=22	=22
1GG	1r	1B 1d 1g	1b	1dd	1gg	1GG	1D	1B	1d	1g	1g
*	*v	*v	*	*	*	*	*	*	*	*	*
=23	=23	=23	=23	=23	=23	=23	=23	=23	=23	=23
4GG/	4d/ 4b/	1r	1r	1r	1r	1r	1r	1r	8g/L	8b\L
.	.	.	.	.	.	.	.	.	16a/L	16cc\L
.	.	.	.	.	.	.	.	.	16b/JJ	16dd\JJ
4AA/	4c/ 4a/	.	.	.	.	.	.	.	8a\L	8cc\L
.	.	.	.	.	.	.	.	.	16b\L	16dd\L
.	.	.	.	.	.	.	.	.	16cc\JJ	16ee\JJ
*	*^	.	.	.	.	.	.	.	*	*
4BB/	8g/L	4d\	.	.	.	.	.	.	.	8b\L	8dd\L
.	8f#/J	.	.	.	.	.	.	.	.	8b\J	8dd\J
4C/	4e/	4A\	.	.	.	.	.	.	.	8.a/L	8.cc\L
.	.	.	.	.	.	.	.	.	.	16g/Jk	16b\Jk
=24	=24	=24	=24	=24	=24	=24	=24	=24	=24	=24	=24
4D\	8dd/	4f#\	1r	8dd\L	8ff#\L	1r	1r	1r	1r	4f#/	4a/
.	4cc/	.	.	16ee\L	16gg\L	.	.	.	.	.	.
.	.	.	.	16ff#\JJ	16aa\JJ	.	.	.	.	.	.
4E\	.	4g\	.	8ee\L	8gg\L	.	.	.	.	4r	4r
.	8b/	.	.	16ff#\L	16aa\L	.	.	.	.	.	.
.	.	.	.	16gg\JJ	16bb\JJ	.	.	.	.	.	.
4F#\	4a/	4d\	.	8ff#\L	8aa\L	.	.	.	.	2r	2r
.	.	.	.	8ff#\J	8aa\	.	.	.	.	.	.
4G\	8g/	4B\	.	8.ee\L	8gg\	.	.	.	.	.	.
.	8f#/	.	.	.	8ff#\J	.	.	.	.	.	.
.	.	.	.	16dd\Jk	.	.	.	.	.	.	.
=25	=25	=25	=25	=25	=25	=25	=25	=25	=25	=25	=25
4A\	8e/L	4c#\	1r	4cc#\	4ee\	1r	8.A/L	2r	1r	1r	1r
.	8f#/J	.	.	.	.	.	.	.	.	.	.
.	.	.	.	.	.	.	16A/k	.	.	.	.
4G\	4g/	4e\	.	4r	4r	.	8.G/	.	.	.	.
.	.	.	.	.	.	.	16G/Jk	.	.	.	.
4F#\	4a/	4d\	.	2r	2r	.	4F#/	8.A/L	.	.	.
.	.	.	.	.	.	.	.	16A/k	.	.	.
4E\	8b/L	4g\	.	.	.	.	8E/L	8.G/	.	.	.
.	8cc#/J	.	.	.	.	.	8E/J	.	.	.	.
.	.	.	.	.	.	.	.	16G/Jk	.	.	.
*	*v	*v	*	*	*	*	*	*	*	*	*
=26	=26	=26	=26	=26	=26	=26	=26	=26	=26	=26
4D\	4f#/ 4dd/	1r	1r	1r	8.D/L	4D/	4F#/	1r	8f#/L	8a/L
.	.	.	.	.	.	.	.	.	16e/L	16g/L
.	.	.	.	.	16D/k	.	.	.	16d/JJ	16f#/JJ
4C/	4e/ 4g/	.	.	.	8.C/	4r	8E/L	.	8e/L	8g/L
.	.	.	.	.	.	.	8E/J	.	16d/L	16f#/L
.	.	.	.	.	16C/Jk	.	.	.	16c/JJ	16e/JJ
4BB/	4f#/ 4dd/	.	.	.	4BB/	2r	2D/	.	8d/L	8f#/L
.	.	.	.	.	.	.	.	.	8d/	8f#/
4AA/	4f#/ 4dd/	.	.	.	8AA/L	.	.	.	8e/	8g/
.	.	.	.	.	8AA/J	.	.	.	8f#/J	8a/J
=27	=27	=27	=27	=27	=27	=27	=27	=27	=27	=27
*	*^	*	*	*	*	*	*	*	*	*
4G\	4b/	4g\	1r	1r	1r	4GG/	8B/L	8d\L	1r	4g/	4b\
.	.	.	.	.	.	.	16A/L	16c\L	.	.	.
.	.	.	.	.	.	.	16G/JJ	16B\JJ	.	.	.
4Fn\	8cc/L	4a\	.	.	.	4r	8A/L	8c\L	.	4r	4r
.	8dd/J	.	.	.	.	.	16G/L	16B\L	.	.	.
.	.	.	.	.	.	.	16Fn/JJ	16A\JJ	.	.	.
4E\	2ryy	4b\ 4ee\	.	.	.	2r	8G/L	8B\L	.	2r	2r
.	.	.	.	.	.	.	8G/	8B\	.	.	.
4D\	.	4b\ 4ffn\	.	.	.	.	8A/	8c\	.	.	.
.	.	.	.	.	.	.	8B/J	8d\J	.	.	.
*	*v	*v	*	*	*	*	*	*	*	*	*
=28	=28	=28	=28	=28	=28	=28	=28	=28	=28	=28
4c\	4g\ 4ee\	1r	1r	1r	8.c\L	4c\	4e\	1r	1r	2r
.	.	.	.	.	16c\k	.	.	.	.	.
4B\	4d/ 4g/	.	.	.	8.B\	4r	4r	.	.	.
.	.	.	.	.	16B\Jk	.	.	.	.	.
4A\	4c/ 4a/	.	.	.	4A\	2r	2r	.	.	8.cc\L
.	.	.	.	.	.	.	.	.	.	16cc\k
4G\	4d/ 4b/	.	.	.	8G\L	.	.	.	.	8.b\
.	.	.	.	.	8G\J	.	.	.	.	.
.	.	.	.	.	.	.	.	.	.	16b\Jk
=29	=29	=29	=29	=29	=29	=29	=29	=29	=29	=29
*	*^	*	*	*	*	*	*	*	*	*
4F#\	4a/	4d\	1r	1r	1r	4F#\	1r	1r	1r	1r	4a/
4E\	8b/L	4g\	.	.	.	4r	.	.	.	.	8g/L
.	8cc/J	.	.	.	.	.	.	.	.	.	8g/J
*	*v	*v	.	.	.	*	.	.	.	.	*
4D\	4f#/ 4dd/	.	.	.	2r	.	.	.	.	4f#/
4C/	4e/ 4a/	.	.	.	.	.	.	.	.	4r
=30	=30	=30	=30	=30	=30	=30	=30	=30	=30	=30
*	*^	*	*	*	*	*	*	*	*	*
4BB/	4b/	4d\ 4f#\	1r	8ff#\L	8dd\L	1r	1r	2r	1r	1r	1r
.	.	.	.	8ff#\	8dd\	.	.	.	.	.	.
4AA/	4cc/	8g\L	.	8gg\	8ee\	.	.	.	.	.	.
.	.	8a\J	.	8aa\J	8ff#\J	.	.	.	.	.	.
*	*v	*v	.	*	*	.	.	*	.	.	.
4G\	4b\ 4dd\	.	4bb\	4gg\	.	.	8.G/L	.	.	.
.	.	.	.	.	.	.	16G/k	.	.	.
4A\	4f#/ 4cc/	.	4r	4r	.	.	8.A/	.	.	.
.	.	.	.	.	.	.	16A/Jk	.	.	.
=31	=31	=31	=31	=31	=31	=31	=31	=31	=31	=31
4GG/	4g/ 4b/	1r	2r	1r	8.GG/L	1r	4B\	1r	8.b/L	8.dd\L
.	.	.	.	.	16GG/k	.	.	.	16b/k	16dd\k
4AA/	4c/ 4a/	.	.	.	8.AA/	.	8c\L	.	8.a/	8.cc\
.	.	.	.	.	.	.	8c\J	.	.	.
.	.	.	.	.	16AA/Jk	.	.	.	16a/Jk	16cc\Jk
4BB/	4d/ 4g/	.	2gg\	.	4BB/	.	4d\	.	4g/	4b\
4C#/	4A/ 4e/	.	.	.	8C#/L	.	4r	.	8e/L	8a/L
.	.	.	.	.	8C#/J	.	.	.	8e/J	8a/J
=32	=32	=32	=32	=32	=32	=32	=32	=32	=32	=32
2D\	2A/ 2f#/	1r	2ff#\	1r	2D\	2r	1r	1r	2f#/	2a/
2d\	2fn/ 2a/	.	2ffn\	.	2r	2d\	.	.	2r	2r
=33	=33	=33	=33	=33	=33	=33	=33	=33	=33	=33
2c#\	2e/ 2a/	1r	2ee\	1r	1r	2c#\	1r	1r	1r	1r
2cn\	2e-/ 2g/	.	4ee-\	.	.	2cn\	.	.	.	.
.	.	.	4ee-\	.	.	.	.	.	.	.
=34	=34	=34	=34	=34	=34	=34	=34	=34	=34	=34
2B\	2d/ 2g/	1r	2dd\	2r	1r	2B\	1r	1r	1r	1r
2B-\	2d/ 2g/	.	2dd\	2gg\	.	4B-\	.	.	.	.
.	.	.	.	.	.	4B-\	.	.	.	.
=35	=35	=35	=35	=35	=35	=35	=35	=35	=35	=35
2A\	2c#/ 2f#/	1r	2cc#\	2ff#\	1r	(2A/	1r	1r	1r	1r
4G\	2cn/ 2a/	.	2ccn\	2ffn\	.	4G/	.	.	.	.
4Fn\	.	.	.	.	.	4Fn/	.	.	.	.
=36	=36	=36	=36	=36	=36	=36	=36	=36	=36	=36
1G	2B/ 2e/	1r	2b\	2ee\	1r	[1G	1r	1r	1r	1r
.	[2c/ 2e-/	.	[2cc\	4ee-\	.	.	.	.	.	.
.	.	.	.	4ee-\	.	.	.	.	.	.
=37	=37	=37	=37	=37	=37	=37	=37	=37	=37	=37
*	*^	*	*	*	*	*	*	*	*	*
1G	1d	2c\]	1r	2cc\]	1dd	1r	1G])	1r	1r	1r	1r
.	.	2B\	.	2b\	.	.	.	.	.	.	.
=38	=38	=38	=38	=38	=38	=38	=38	=38	=38	=38	=38
4c\	4e/	4c\	1r	4cc\	4cc\	1r	4c\	1r	1r	8cc\L	8ee\L
.	.	.	.	.	.	.	.	.	.	16b\L	16dd\L
.	.	.	.	.	.	.	.	.	.	16a\JJ	16cc\JJ
4B\	8g/L	4d\	.	4r	4r	.	4r	.	.	8b/L	8dd\L
.	16a/L	.	.	.	.	.	.	.	.	16a/L	16cc\L
.	16b/JJ	.	.	.	.	.	.	.	.	16g/JJ	16b\JJ
4A\	4cc/	4e\	.	2r	2r	.	2r	.	.	8a/L	8cc\L
.	.	.	.	.	.	.	.	.	.	8a/	8cc\
4G\	8dd/L	4b\	.	.	.	.	.	.	.	8b/	8dd\
.	8ee/J	.	.	.	.	.	.	.	.	8b/J	8ee\J
*	*v	*v	*	*	*	*	*	*	*	*	*
=39	=39	=39	=39	=39	=39	=39	=39	=39	=39	=39
4Fn\	4a\ 4ffn\	1r	1r	1r	1r	1r	8.Fn/L	1r	4cc\	4ffn\
.	.	.	.	.	.	.	16F/k	.	.	.
4G\	4b\ 4dd\	.	.	.	.	.	8.G/	.	4r	4r
.	.	.	.	.	.	.	16G/Jk	.	.	.
4A\	4e/ 4a/ 4cc/	.	.	.	.	.	4A/	.	2r	2r
4B\	4d/ 4g/ 4dd/	.	.	.	.	.	8.B\L	.	.	.
.	.	.	.	.	.	.	16B\Jk	.	.	.
=40	=40	=40	=40	=40	=40	=40	=40	=40	=40	=40
4C/	4g\ 4ee\	1r	8cc\L	8ee\L	8.C/L	1r	4c\	1r	1r	1r
.	.	.	16dd\L	16ffn\L	.	.	.	.	.	.
.	.	.	16ee\JJ	16gg\JJ	16C/k	.	.	.	.	.
4D\	4fn/ 4dd/	.	8dd\L	8ff\L	8.D/	.	4r	.	.	.
.	.	.	16ee\L	16gg\L	.	.	.	.	.	.
.	.	.	16ffn\JJ	16aa\JJ	16D/Jk	.	.	.	.	.
*	*^	.	*	*	*	.	*	.	.	.
4E\	8cc/L	4g\	.	8ee\L	8gg\L	4E\	.	2r	.	.	.
.	8b/J	.	.	8ee\J	8gg\J	.	.	.	.	.	.
4F#\	4a/	4d\	.	8.dd\L	8.ff#\L	8F#\L	.	.	.	.	.
.	.	.	.	.	.	8F#\J	.	.	.	.	.
.	.	.	.	16cc\Jk	16ee\Jk	.	.	.	.	.	.
*	*v	*v	*	*	*	*	*	*	*	*	*
=41	=41	=41	=41	=41	=41	=41	=41	=41	=41	=41
4G\	4d/ 4g/ 4b/	1r	4b\	4dd\	4G\	8.G/L	1r	1r	8g/L	8b\L
.	.	.	.	.	.	.	.	.	16a/L	16cc\L
.	.	.	.	.	.	16G/k	.	.	16b/JJ	16dd\JJ
4A\	4c/ 4e/ 4a/	.	4r	4r	4r	8.A/	.	.	8a\L	8cc\L
.	.	.	.	.	.	.	.	.	16b\L	16dd\L
.	.	.	.	.	.	16A/Jk	.	.	16cc\JJ	16ee\JJ
*	*^	.	*	*	*	*	.	.	*	*
4B\	4g/	4d\	.	2r	2r	2r	4B\	.	.	8b\L	8dd\L
.	.	.	.	.	.	.	.	.	.	8b\J	8dd\J
4c#\	8.a/L	4e\	.	.	.	.	8c#\L	.	.	8.a/L	8.cc#\L
.	.	.	.	.	.	.	8c#\J	.	.	.	.
.	16g/Jk	.	.	.	.	.	.	.	.	16g/Jk	16b\Jk
*	*v	*v	*	*	*	*	*	*	*	*	*
=42	=42	=42	=42	=42	=42	=42	=42	=42	=42	=42
4D\	4d/ 4f#/	1r	8dd\L	8ff#\L	1r	4d\	8.D/L	1r	4f#/	4a/
.	.	.	16ee\L	16gg\L	.	.	.	.	.	.
.	.	.	16ff#\JJ	16aa\JJ	.	.	16D/k	.	.	.
4E\	4B/ 4g/	.	8ee\L	8gg\L	.	4r	8.E/	.	4r	4r
.	.	.	16ff#\L	16aa\L	.	.	.	.	.	.
.	.	.	16gg\JJ	16bb\JJ	.	.	16E/Jk	.	.	.
4F#\	4d/ 4a/	.	8ff#\L	8aa\L	.	2r	4F#/	.	2r	8.a/L
.	.	.	8ff#\J	8aa\J	.	.	.	.	.	.
.	.	.	.	.	.	.	.	.	.	16a/k
4G\	4d/ 4b/	.	8.ee\L	8.gg\L	.	.	8G/L	.	.	8.b/
.	.	.	.	.	.	.	8G/J	.	.	.
.	.	.	16dd\Jk	16ff#\Jk	.	.	.	.	.	16b/Jk
=43	=43	=43	=43	=43	=43	=43	=43	=43	=43	=43
2A\	2c#/ 2a/	1r	4cc#\	4ee\	2r	1r	1A	1r	8.a/L	4cc#\
.	.	.	.	.	.	.	.	.	16a/k	.
.	.	.	4r	4r	.	.	.	.	8.b/	8dd\L
.	.	.	.	.	.	.	.	.	.	8dd\J
.	.	.	.	.	.	.	.	.	16b/Jk	.
2A\	2c#/ 2a/	.	2r	2r	2A\	.	.	.	4cc#\	4ee\
.	.	.	.	.	.	.	.	.	8dd\L	4r
.	.	.	.	.	.	.	.	.	8dd\J	.
=44	=44	=44	=44	=44	=44	=44	=44	=44	=44	=44
2G#\	2e/ 2b/	1r	1r	1r	2G#\	1r	1r	1r	2ee\	2r
2Gn\	2e/ 2b/	.	.	.	2Gn\	.	.	.	2r	2ee\
=45	=45	=45	=45	=45	=45	=45	=45	=45	=45	=45
2F#\	2d#/ 2a/	1r	1r	1r	2F#\	1r	1r	1r	2r	2dd#\
2Fn\	2a\ 2ddn\	.	.	.	4Fn\	.	.	.	2a/	2ddn\
.	.	.	.	.	4F\	.	.	.	.	.
=46	=46	=46	=46	=46	=46	=46	=46	=46	=46	=46
2E\	2g#/ 2cc#/	1r	1r	1r	(2E\	1r	1r	1r	2g#/	2cc#\
4D\	2gn/ 2ccn/	.	.	.	4D\	.	.	.	2gn/	4ccn\
4C/	.	.	.	.	4C/	.	.	.	.	4cc\
=47	=47	=47	=47	=47	=47	=47	=47	=47	=47	=47
1D	2f#/ 2b/	1r	1r	1r	1D)	1r	1r	1r	2f#/	(2b\
.	[2g/ 2b-/	.	.	.	.	.	.	.	4g/	2b-\
.	.	.	.	.	.	.	.	.	4g/	.
=48	=48	=48	=48	=48	=48	=48	=48	=48	=48	=48
*	*^	*	*	*	*	*	*	*	*	*
1D	1a	2g\]	1r	1r	1r	1D	1r	1r	1r	(2g/	1a)
.	.	2f#\	.	.	.	.	.	.	.	2f#/)	.
*	*v	*v	*	*	*	*	*	*	*	*	*
=49	=49	=49	=49	=49	=49	=49	=49	=49	=49	=49
4G\	4d/ 4b/	1r	1r	1r	1r	8.G/L	8.B\L	1r	4g/	4g/
.	.	.	.	.	.	16G/k	16B\k	.	.	.
4A\	4a/ 4cc/	.	.	.	.	8.A/	8.c\	.	4r	4r
.	.	.	.	.	.	16A/Jk	16c\Jk	.	.	.
4B\	4g/ 4b/	.	.	.	.	4B\	4d\	.	2r	2r
4c#\	4e/ 4a/	.	.	.	.	8c#\L	8e\L	.	.	.
.	.	.	.	.	.	8c#\J	8e\J	.	.	.
=50	=50	=50	=50	=50	=50	=50	=50	=50	=50	=50
2d\	2f#/ 2a/	2r	2r	2r	2r	2d\	2f#\	2r	2r	1r
2D\	2fn/ 2a/	2fn\	[2a/	2dd\	2D\	[2A/	2d\	2d/	2fn/	.
=51	=51	=51	=51	=51	=51	=51	=51	=51	=51	=51
2C#/	2e/ 2a/	2e\	4a/]	2ee\	2C#/	2A/]	2A/	2e/	2e/	1r
.	.	.	8g/L	.	.	.	.	.	.	.
.	.	.	8fn/J	.	.	.	.	.	.	.
2Cn/	2e-/ 2g/	2e-\	2g/	2cc\	2Cn/	[2G/	2c\	2c/	2e-/	.
=52	=52	=52	=52	=52	=52	=52	=52	=52	=52	=52
2BB/	2d/ 2g/	2d\	2g/	1dd	2BB/	2G/]	1G	1d	2d/	2r
2BB-/	2d/ 2g/	2d\	2gg\	.	4BB-/	2D/	.	.	4d/	2g/
.	.	.	.	.	4BB-/	.	.	.	4d/	.
=53	=53	=53	=53	=53	=53	=53	=53	=53	=53	=53
2AA/	2c#/ 2f#/	2c#\	2aa\	2a/	(2AA/	2A/	2A/	2A/	(2c#/	2f#/
4GG/	2d/ 2a/	2d\	2aa\	2a/	4GG/	4D/	2A/	2A/	4.d/	2fn/
4FFn/	.	.	.	.	4FFn/	4D/	.	.	.	.
.	.	.	.	.	.	.	.	.	8cn/	.
=54	=54	=54	=54	=54	=54	=54	=54	=54	=54	=54
1GG	2B/ 2e/	2e\	2ee\	2b\	1GG)	(4.G/	[1G	(2B/	2B/	2e/
.	.	.	.	.	.	8Fn/	.	.	.	.
.	[2c/ 2e-/	2e-\	2gg\	2g/	.	4E-/	.	2G/)	[2c/	4e-/
.	.	.	.	.	.	8D/L	.	.	.	4e-/
.	.	.	.	.	.	8C/J	.	.	.	.
=55	=55	=55	=55	=55	=55	=55	=55	=55	=55	=55
*	*^	*	*	*	*	*	*	*	*	*
1GG	1d 1g	2c\]	1d	1gg	1g	1GG	1D)	1G]	1G	2c/]	1d
.	.	2B\	.	.	.	.	.	.	.	2B/)	.
=56	=56	=56	=56	=56	=56	=56	=56	=56	=56	=56	=56
4C/	4e/ 4g/	4c\	4c\	4ee\	4g/	1r	8C/	2G/	1r	4c/	4c/
.	.	.	.	.	.	.	8c\	.	.	.	.
4BB/	8g/L	4d\	4r	4r	4r	.	8d\L	.	.	4r	4r
.	16a/L	.	.	.	.	.	16c\L	.	.	.	.
.	16b/JJ	.	.	.	.	.	16B\JJ	.	.	.	.
*	*v	*v	*	*	*	.	*	*	.	*	*
4AA/	4cc/	2r	2r	2r	.	8c\L	8r	.	2r	2r
.	.	.	.	.	.	8A\J	8c\	.	.	.
4GG/	4b/	.	.	.	.	4B\	8d\L	.	.	.
.	.	.	.	.	.	.	16c\L	.	.	.
.	.	.	.	.	.	.	16B\JJ	.	.	.
=57	=57	=57	=57	=57	=57	=57	=57	=57	=57	=57
*	*^	*	*	*	*	*	*	*	*	*
4Fn\	8cc/L	4a\	1r	8r	8r	1r	2r	8c\L	1r	1r	1r
.	8dd/J	.	.	8dd\	8ffn\	.	.	8A\J	.	.	.
4E\	4ee/	4g\	.	8ee\L	8gg\L	.	.	4B\	.	.	.
.	.	.	.	16dd\L	16ff\L	.	.	.	.	.	.
.	.	.	.	16cc\JJ	16ee\JJ	.	.	.	.	.	.
*	*v	*v	.	*	*	.	*	*	.	.	.
4D\	4fn/ 4b/	.	8dd\L	8ff\L	.	8.fn\L	2r	.	.	.
.	.	.	8b\J	16ee\L	.	.	.	.	.	.
.	.	.	.	16dd\JJ	.	16f\k	.	.	.	.
4C/	4e/ 4cc/	.	4cc\	4ee\	.	8.e\	.	.	.	.
.	.	.	.	.	.	16e\Jk	.	.	.	.
=58	=58	=58	=58	=58	=58	=58	=58	=58	=58	=58
4BB/	4d/ 4g/	1r	1r	1r	2r	4d\	8r	1r	1r	1r
.	.	.	.	.	.	.	8B\	.	.	.
4AA/	4c/ 4a/	.	.	.	.	4c\	8c\L	.	.	.
.	.	.	.	.	.	.	16B\L	.	.	.
.	.	.	.	.	.	.	16A\JJ	.	.	.
4G\	4d/ 4b/	.	.	.	8.G\L	8r	8B/L	.	.	.
.	.	.	.	.	.	8B\	8G/J	.	.	.
.	.	.	.	.	16G\k	.	.	.	.	.
4Fn\	4a/ 4cc/	.	.	.	8.Fn\	8c\L	4A/	.	.	.
.	.	.	.	.	.	16B\L	.	.	.	.
.	.	.	.	.	16F\Jk	16A\JJ	.	.	.	.
=59	=59	=59	=59	=59	=59	=59	=59	=59	=59	=59
4E\	4g/ 4cc/	1r	1r	1r	4E\	8B/L	2r	1r	8r	8r
.	.	.	.	.	.	8G/J	.	.	8cc\	8ee\
4D\	4fn/ 4b/	.	.	.	4D\	4A/	.	.	8dd\L	8ffn\L
.	.	.	.	.	.	.	.	.	16cc\L	16ee\L
.	.	.	.	.	.	.	.	.	16b\JJ	16dd\JJ
4C/	4e/ 4a/	.	.	.	2r	2r	8.e\L	.	8cc\L	8ee\L
.	.	.	.	.	.	.	.	.	8a\J	8cc\J
.	.	.	.	.	.	.	16e\k	.	.	.
4BB/	4d/ 4g/	.	.	.	.	.	8.d\	.	4b\	4dd\
.	.	.	.	.	.	.	16d\Jk	.	.	.
=60	=60	=60	=60	=60	=60	=60	=60	=60	=60	=60
4A\	4c/ 4e/	1r	1r	1r	8.A\L	8r	4c\	1r	2r	1r
.	.	.	.	.	.	8c\	.	.	.	.
.	.	.	.	.	16A\k	.	.	.	.	.
4G\	4B/ 4g/	.	.	.	8.G\	8d\L	4B\	.	.	.
.	.	.	.	.	.	16c\L	.	.	.	.
.	.	.	.	.	16G\Jk	16B\JJ	.	.	.	.
*	*^	.	.	.	*	*	*	.	*	.
4Fn\	4a/	4c\	.	.	.	4Fn\	8c\L	2r	.	8.a/L	.
.	.	.	.	.	.	.	8A\J	.	.	.	.
.	.	.	.	.	.	.	.	.	.	16a/k	.
4E\	8b/L	4g\	.	.	.	4E\	4B\	.	.	8.g/	.
.	8cc/J	.	.	.	.	.	.	.	.	.	.
.	.	.	.	.	.	.	.	.	.	16g/Jk	.
*	*v	*v	*	*	*	*	*	*	*	*	*
=61	=61	=61	=61	=61	=61	=61	=61	=61	=61	=61
4d\	4fn/ 4dd/	1r	8r	8r	1r	2r	8.d\L	1r	4fn/	2r
.	.	.	8b\	8dd\	.	.	.	.	.	.
.	.	.	.	.	.	.	16d\k	.	.	.
4c\	4e/ 4a/	.	8cc\L	8ee\L	.	.	8.c\	.	4e/	.
.	.	.	16b\L	16dd\L	.	.	.	.	.	.
.	.	.	16a\JJ	16cc\JJ	.	.	16c\Jk	.	.	.
4B\	4d/ 4g/	.	8b/L	8dd\L	.	8r	4B\	.	2r	8.dd\L
.	.	.	8g/J	8b\J	.	8d\	.	.	.	.
.	.	.	.	.	.	.	.	.	.	16dd\k
4A\	4c/ 4e/	.	4a/	4cc\	.	8e\L	4A/	.	.	8.cc\
.	.	.	.	.	.	16d\L	.	.	.	.
.	.	.	.	.	.	16c\JJ	.	.	.	16cc\Jk
=62	=62	=62	=62	=62	=62	=62	=62	=62	=62	=62
4G\	4B/ 4g/	1r	1r	2r	8r	8d\L	1r	1r	2r	4b\
.	.	.	.	.	8G\	8B\J	.	.	.	.
4Fn\	4c/ 4a/	.	.	.	8A\L	4c\	.	.	.	4a/
.	.	.	.	.	16G\L	.	.	.	.	.
.	.	.	.	.	16Fn\JJ	.	.	.	.	.
4E\	4g/ 4cc/	.	.	8.gg\L	8G\L	2r	.	.	8r	8r
.	.	.	.	.	8E\J	.	.	.	8ee\	8cc\
.	.	.	.	16gg\k	.	.	.	.	.	.
4D\	4fn/ 4b/	.	.	8.ffn\	4D\	.	.	.	8ffn\L	8dd\L
.	.	.	.	.	.	.	.	.	16ee\L	16cc\L
.	.	.	.	16ff\Jk	.	.	.	.	16dd\JJ	16b\JJ
=63	=63	=63	=63	=63	=63	=63	=63	=63	=63	=63
4C/	4e/ 4cc/	1r	8gg\L	4ee\	8.C/L	4E/	4c\	1r	8ee\L	8cc\L
.	.	.	8aa\J	.	.	.	.	.	8cc\J	8a\J
.	.	.	.	.	16C/k	.	.	.	.	.
4BB/	4d/ 4g/	.	4gg\	4dd\	8.BB/	4G/	4G/	.	4dd\	4b\
.	.	.	.	.	16BB/Jk	.	.	.	.	.
4AA/	4c/ 4a/	.	8cc\L	8aa\L	8.AA/L	4A/	4c\	.	8.cc\L	8.e/L
.	.	.	8a\J	8ee\J	.	.	.	.	.	.
.	.	.	.	.	16AA/k	.	.	.	16cc\k	16fn/k
4GG/	4d/ 4g/ 4b/	.	4dd\	[4gg\	8.GG/	4D/	4d\	.	8.b\	8.g/
.	.	.	.	.	16GG/Jk	.	.	.	16b\Jk	16g/Jk
=64	=64	=64	=64	=64	=64	=64	=64	=64	=64	=64
*	*^	*	*	*	*	*	*	*	*	*
1D	4g\	1d 1a	1r	1dd	4gg\]	1D	(8D/L	(2d\	1r	1a	(4g/
.	.	.	.	.	.	.	8E/	.	.	.	.
.	8f#\L	.	.	.	8ff#\L	.	8F#/	.	.	.	8f#/L
.	8e\J	.	.	.	8ee\J	.	8G/J	.	.	.	8e/J
.	2f#\	.	.	.	2ff#\	.	4A/	2A/)	.	.	2f#/)
.	.	.	.	.	.	.	4D/)	.	.	.	.
*	*v	*v	*	*	*	*	*	*	*	*	*
=65	=65	=65	=65	=65	=65	=65	=65	=65	=65	=65
1GG;	1d; 1g; 1b;	1r	1b;	1gg;	1GG;	1D;	1B;	1r	1g;	1g;
=66	=66	=66	=66	=66	=66	=66	=66	=66	=66	=66
2.E\	2.e/ 2.g#/ 2.b/	2.g#\	2.b\	2.ee\	2.E\	2.G#/	2.B\	2.e/	2.g#/	2.b\
4E\	4e/ 4g#/ 4b/	4g#\	4b\	4ee\	4E\	4G#/	4B\	4e/	4g#/	4b\
=67	=67	=67	=67	=67	=67	=67	=67	=67	=67	=67
2E\	2e/ 2g#/ 2b/	2g#\	2b\	2ee\	2E\	2G#/	2B\	2e/	2g#/	2b\
2r	2r	2r	2r	2r	2r	2r	2r	2r	2r	2r
=68	=68	=68	=68	=68	=68	=68	=68	=68	=68	=68
*M3/4	*M3/4	*M3/4	*M3/4	*M3/4	*M3/4	*M3/4	*M3/4	*M3/4	*M3/4	*M3/4
2.E\	2.e/ 2.cc/	2.r	2.r	2.r	2.r	2.r	2.r	2.r	4cc\	4ee\
.	.	.	.	.	.	.	.	.	4b\	4dd\
.	.	.	.	.	.	.	.	.	4a/	4cc\
=69	=69	=69	=69	=69	=69	=69	=69	=69	=69	=69
2.E\	2.d/ 2.b/	2.r	2.r	2.r	2.r	2.r	2.r	2.r	4b\	4dd\
.	.	.	.	.	.	.	.	.	4a/	4cc\
.	.	.	.	.	.	.	.	.	4g#/	4b\
=70	=70	=70	=70	=70	=70	=70	=70	=70	=70	=70
2.E\	2.c/ 2.a/	2.r	2.r	2.r	2.r	2.r	2.r	2.r	4a/	4cc\
.	.	.	.	.	.	.	.	.	4a/	4b\
.	.	.	.	.	.	.	.	.	4a/	4a/
=71	=71	=71	=71	=71	=71	=71	=71	=71	=71	=71
*	*^	*	*	*	*	*	*	*	*	*
2.E\	2a/	2.B\	2.r	2.r	2.r	2.r	2.r	2.r	2.r	2a/	2b\
.	4g#/	.	.	.	.	.	.	.	.	4g#/	4b\
=72	=72	=72	=72	=72	=72	=72	=72	=72	=72	=72	=72
4A\	4a/	4c#\	2.r	2.r	2.r	2.r	4r	4r	2.r	2a/	2a/
4A\	2a/	2c#\	.	.	.	.	4A/	4c#\	.	.	.
4A\	.	.	.	.	.	.	4A/	4c#\	.	4r	4r
=73	=73	=73	=73	=73	=73	=73	=73	=73	=73	=73	=73
4G\	4b/	4d\	2.r	2.r	2.r	2.r	4B\	4d\	2.r	2.r	2.r
2F#\	4cc#/	2d\	.	.	.	.	4c#\	4d\	.	.	.
.	4dd/	.	.	.	.	.	4d\	4d\	.	.	.
=74	=74	=74	=74	=74	=74	=74	=74	=74	=74	=74	=74
2.A\	2dd/	2.e\	2.r	2.r	2.r	2.r	(2d\	2.e\	2.r	2.r	2.r
.	4cc#/	.	.	.	.	.	4c#\)	.	.	.	.
*	*v	*v	*	*	*	*	*	*	*	*	*
=75	=75	=75	=75	=75	=75	=75	=75	=75	=75	=75
2.D;\	2.f#;/ 2.dd;/	2.r;	2.r;	2.r;	2.r;	2.d;\	2.d;\	2.r;	2.r;	2.r;
=76	=76	=76	=76	=76	=76	=76	=76	=76	=76	=76
*M4/4	*M4/4	*M4/4	*M4/4	*M4/4	*M4/4	*M4/4	*M4/4	*M4/4	*M4/4	*M4/4
2.D\	2.d/ 2.f#/ 2.a/	2.a\	2.ff#\	2.dd\	2.D\	2.A/	2.d\	2.d/	2.f#/	2.a/
4D\	4d/ 4f#/ 4a/	4a\	4ff#\	4dd\	4D\	4A/	4d\	4d/	4f#/	4a/
=77	=77	=77	=77	=77	=77	=77	=77	=77	=77	=77
2D\	2d/ 2f#/ 2a/	2a\	2ff#\	2dd\	2D\	2A/	2d\	2d/	2f#/	2a/
2r	2r	2r	2r	2r	2r	2r	2r	2r	2r	2r
=78	=78	=78	=78	=78	=78	=78	=78	=78	=78	=78
*M3/4	*M3/4	*M3/4	*M3/4	*M3/4	*M3/4	*M3/4	*M3/4	*M3/4	*M3/4	*M3/4
2.D\	2.d/ 2.b/	2.r	2.r	2.r	2.r	4B\	4d\	2.r	2.r	2.r
.	.	.	.	.	.	4A/	4c\	.	.	.
.	.	.	.	.	.	4G/	4B\	.	.	.
=79	=79	=79	=79	=79	=79	=79	=79	=79	=79	=79
2.D\	2.c/ 2.a/	2.r	2.r	2.r	2.r	4A/	4c\	2.r	2.r	2.r
.	.	.	.	.	.	4G/	4B\	.	.	.
.	.	.	.	.	.	4F#/	4A/	.	.	.
=80	=80	=80	=80	=80	=80	=80	=80	=80	=80	=80
2.D\	2.B/ 2.g/	2.r	2.r	2.r	2.r	4G/	4B\	2.r	2.r	2.r
.	.	.	.	.	.	4G/	4A/	.	.	.
.	.	.	.	.	.	4G/	4G/	.	.	.
=81	=81	=81	=81	=81	=81	=81	=81	=81	=81	=81
*	*^	*	*	*	*	*	*	*	*	*
2.D\	2g/	2.A\	2.r	2.r	2.r	2.r	2G/	2A/	2.r	2.r	2.r
.	4f#/	.	.	.	.	.	4F#/	4A/	.	.	.
*	*v	*v	*	*	*	*	*	*	*	*	*
=82	=82	=82	=82	=82	=82	=82	=82	=82	=82	=82
4G\	4B/ 4g/	2.r	2.r	2.r	2.r	2G/	2G/	2.r	4r	4r
4G\	2B/ 2g/	.	.	.	.	.	.	.	4g/	4b\
4G\	.	.	.	.	.	4r	4r	.	4g/	4b\
=83	=83	=83	=83	=83	=83	=83	=83	=83	=83	=83
4Fn\	4c/ 4a/	2.r	2.r	2.r	2.r	2.r	2.r	2.r	4a/	4cc\
2E\	4d/ 4b/	.	.	.	.	.	.	.	4b\	4dd\
.	4e/ 4cc/	.	.	.	.	.	.	.	4cc\	4ee\
=84	=84	=84	=84	=84	=84	=84	=84	=84	=84	=84
*	*^	*	*	*	*	*	*	*	*	*
2.G\	2cc/	2.d\	2.r	2.r	2.r	2.r	2.r	2.r	2.r	(2cc\	2.dd\
.	4b/	.	.	.	.	.	.	.	.	4b\)	.
=85	=85	=85	=85	=85	=85	=85	=85	=85	=85	=85	=85
2.c\	4cc/	2.e\	2.r	4cc\	4ee\	2.r	2.r	2.r	2.r	2cc\	2cc\
.	4g/	.	.	4b\	4dd\	.	.	.	.	.	.
.	4a/	.	.	4a/	4cc\	.	.	.	.	4r	4r
=86	=86	=86	=86	=86	=86	=86	=86	=86	=86	=86	=86
2.B\	4b/	2.d\	2.r	4b\	4dd\	2.r	2.r	2.r	2.r	2.r	2.r
.	4cc/	.	.	4a/	4cc\	.	.	.	.	.	.
.	4dd/	.	.	4g/	4b\	.	.	.	.	.	.
*	*v	*v	*	*	*	*	*	*	*	*	*
=87	=87	=87	=87	=87	=87	=87	=87	=87	=87	=87
*^	*	*	*	*	*	*	*	*	*	*
2.c/	2.A\	4ee\	2.r	2.r	2.r	2.r	2.r	2.r	2.r	4cc\	4ee\
.	.	4dd\	.	.	.	.	.	.	.	4b\	4dd\
.	.	4cc\	.	.	.	.	.	.	.	4a/	4cc\
=88	=88	=88	=88	=88	=88	=88	=88	=88	=88	=88	=88
2.d/	2.G\	4b\	2.r	2.r	2.r	2.r	2.r	2.r	2.r	4b\	4dd\
.	.	4cc\	.	.	.	.	.	.	.	4a/	4cc\
.	.	4dd\	.	.	.	.	.	.	.	4g/	4b\
*v	*v	*	*	*	*	*	*	*	*	*	*
=89	=89	=89	=89	=89	=89	=89	=89	=89	=89	=89
*	*^	*	*	*	*	*	*	*	*	*
2.Fn\	4ffn/	2.a\	2.r	4ffn\	4aa\	2.r	2.r	2.r	2.r	2.r	2.r
.	4ee/	.	.	4ee\	4gg\	.	.	.	.	.	.
.	4dd/	.	.	4dd\	4ffn\	.	.	.	.	.	.
=90	=90	=90	=90	=90	=90	=90	=90	=90	=90	=90	=90
2.E\	4cc#/	2.g\	2.r	4ee\	4gg\	2.r	2.r	2.r	2.r	2.r	2.r
.	4b/	.	.	4dd\	4ffn\	.	.	.	.	.	.
.	4cc#/	.	.	4cc#\	4ee\	.	.	.	.	.	.
*	*v	*v	*	*	*	*	*	*	*	*	*
=91	=91	=91	=91	=91	=91	=91	=91	=91	=91	=91
2.D\	2.fn/ 2.dd/	2.r	4dd\	4ffn\	2.r	2.r	2.r	2.r	2.r	2.r
.	.	.	4cc\	4ee\	.	.	.	.	.	.
.	.	.	4b\	4dd\	.	.	.	.	.	.
=92	=92	=92	=92	=92	=92	=92	=92	=92	=92	=92
2.C/	4e/ 4g/	2.r	4cc\	4ee\	2.r	2.r	2.r	2.r	4r	4r
.	2e/ 2g/	.	4cc\	4ee\	.	.	.	.	4e/	4g/
.	.	.	4cc\	4ee\	.	.	.	.	4e/	4g/
=93	=93	=93	=93	=93	=93	=93	=93	=93	=93	=93
4Fn\	4d/ 4a/	2.r	2.r	2.r	2.r	2.r	2.r	2.r	4fn/	4a/
2D\	2fn/ 2a/	.	.	.	.	.	.	.	4a/	4dd\
.	.	.	.	.	.	.	.	.	4a/	4cc\
=94	=94	=94	=94	=94	=94	=94	=94	=94	=94	=94
*	*^	*	*	*	*	*	*	*	*	*
2.E\	2a/	2.B\	2.r	2.r	2.r	2.r	2.r	2.r	2.r	(2a/	2.b\
.	4g#/	.	.	.	.	.	.	.	.	4g#/)	.
*	*v	*v	*	*	*	*	*	*	*	*	*
=95	=95	=95	=95	=95	=95	=95	=95	=95	=95	=95
4A\	4c/ 4a/	2.r	4r	4r	2.r	2.r	2.r	2.r	2a/	2a/
4A\	2c/ 2a/	.	4a/	4cc\	.	.	.	.	.	.
4A\	.	.	4a/	4cc\	.	.	.	.	4r	4r
=96	=96	=96	=96	=96	=96	=96	=96	=96	=96	=96
4G\	4d/ 4b/	2.r	4b\	4dd\	2.r	2.r	2.r	2.r	2.r	2.r
2G\	2d/ 2b/	.	4cc#\	4gg\	.	.	.	.	.	.
.	.	.	4dd\	4ffn\	.	.	.	.	.	.
=97	=97	=97	=97	=97	=97	=97	=97	=97	=97	=97
*	*^	*	*	*	*	*	*	*	*	*
2.A\	2.e/ 2.a/	2d\	2.r	2dd\	2.ee\	2.r	2.r	2.r	2.r	2.r	2.r
.	.	4c#\	.	4cc#\	.	.	.	.	.	.	.
=98	=98	=98	=98	=98	=98	=98	=98	=98	=98	=98	=98
2.D\	2a/	2.f#\	2.r	2dd\	2dd\	2.r	4d\	2.r	2.r	2.r	2.r
.	.	.	.	.	.	.	4c\	.	.	.	.
.	4b/	.	.	4r	4r	.	4B\	.	.	.	.
=99	=99	=99	=99	=99	=99	=99	=99	=99	=99	=99	=99
2.C/	2.cc/	4e\	2.r	2.r	2.r	2.r	4c\	2.r	2.r	2.r	2.r
.	.	8fn\L	.	.	.	.	4B\	.	.	.	.
.	.	8g\J	.	.	.	.	.	.	.	.	.
.	.	4a\	.	.	.	.	4A/	.	.	.	.
*	*v	*v	*	*	*	*	*	*	*	*	*
=100	=100	=100	=100	=100	=100	=100	=100	=100	=100	=100
2.BB/	2g/ 2dd/	2.r	2.r	2.r	2.r	4B\	4d\	2.r	2.r	2.r
.	.	.	.	.	.	4A/	4c\	.	.	.
.	4d/ 4g/	.	.	.	.	4G/	4B\	.	.	.
=101	=101	=101	=101	=101	=101	=101	=101	=101	=101	=101
2.AA/	2.c/ 2.fn/	2.r	2.r	2.r	2.r	4A/	4c\	2.r	2.r	2.r
.	.	.	.	.	.	4G/	4B\	.	.	.
.	.	.	.	.	.	4Fn/	4A/	.	.	.
=102	=102	=102	=102	=102	=102	=102	=102	=102	=102	=102
2.GG/	2.B/ 2.e/	2.r	2.r	2.r	2.r	4G/	4B\	2.r	2.r	2.r
.	.	.	.	.	.	4Fn/	4A/	.	.	.
.	.	.	.	.	.	4E/	4G/	.	.	.
=103	=103	=103	=103	=103	=103	=103	=103	=103	=103	=103
2.D\	2.F#/ 2.d/	2.r	2.r	2.r	2.r	4.F#/	4.A/	2.r	2.r	2.r
.	.	.	.	.	.	8F#/ 8A/	8A/	.	.	.
.	.	.	.	.	.	4F#/	4A/	.	.	.
=104	=104	=104	=104	=104	=104	=104	=104	=104	=104	=104
2.D\	4r	2.r	2.r	2.r	2.r	4r	4r	2.r	2.r	2.r
.	2A/ 2f#/	.	.	.	.	4F#/	4D/	.	.	.
.	.	.	.	.	.	4F#/	4D/	.	.	.
=105	=105	=105	=105	=105	=105	=105	=105	=105	=105	=105
4C/	4e/ 4g/	2.r	2.r	2.r	2.r	4G/	4E/	2.r	2.r	2.r
2BB/	4f#/ 4a/	.	.	.	.	4A/	4F#/	.	.	.
.	4g/ 4b/	.	.	.	.	4B\	4G/	.	.	.
=106	=106	=106	=106	=106	=106	=106	=106	=106	=106	=106
*	*^	*	*	*	*	*	*	*	*	*
2.D\	2.a/	2g\	2.r	2.r	2.r	2.r	2.A/	(2G/	2.r	2.r	2.r
.	.	4f#\	.	.	.	.	.	4F#/)	.	.	.
*	*v	*v	*	*	*	*	*	*	*	*	*
=107	=107	=107	=107	=107	=107	=107	=107	=107	=107	=107
2.GG/	2.B/ 2.d/ 2.g/	2.r	2.r	2.r	2.r	2.G/	2.G/	2.r	2.r	2.r
=108	=108	=108	=108	=108	=108	=108	=108	=108	=108	=108
*M4/4	*M4/4	*M4/4	*M4/4	*M4/4	*M4/4	*M4/4	*M4/4	*M4/4	*M4/4	*M4/4
4r	4r	4r	4r	4r	4r	4r	4r	4r	4r	4r
2G\	2d/ 2g/ 2b/	2g\	2b\	2dd\	2G\	2B\	2d\	2d/	2g/	2g/
4G\	4d/ 4g/ 4b/	4g\	4b\	4dd\	4G\	4B\	4d\	4d/	4g/	4g/
=109	=109	=109	=109	=109	=109	=109	=109	=109	=109	=109
2E\	2e/ 2g#/ 2b/	2g#\	2b\	2ee\	2E\	2B\	2e\	2e/	2g#/	2b\
2E\	2e/ 2g#/ 2b/	2g#\	2b\	2ee\	2E\	2E/	2B\	2e/	2g#/	2b\
=110	=110	=110	=110	=110	=110	=110	=110	=110	=110	=110
4r	4r	4r	4r	4r	4r	4r	4r	4r	4r	4r
2E\	2e/ 2g#/ 2b/	2g#\	2b\	2ee\	2E\	2B\	2e\	2e/	2g#/	2b\
4E\	4e/ 4g#/ 4cc#/	4g#\	4b\	4ee\	4E\	4E/	4e\	4e/	4g#/	4cc#\
=111	=111	=111	=111	=111	=111	=111	=111	=111	=111	=111
4.C#/	4.e/ 4.a/	4.a\	4.cc#\	4.ee\	4.C#/	4.E/	4.A/	4.e/	4.a/	4.a/
8C#/	8e/ 8a/	8e\	8cc#\	8ee\	8C#/	8E/	8A/	8e/	8e/	8a/
2C#/	2e/ 2a/	2e\	2cc#\	2ee\	2C#/	2E/	2A/	2c#/	2e/	2a/
=112	=112	=112	=112	=112	=112	=112	=112	=112	=112	=112
4r	4r	4r	4r	4r	4r	4r	4r	4r	4r	4r
4C#/	4e/ 4a/	4a\	4cc#\	4ee\	4C#/	4E/	4A/	4c#/	4.e/	4a/
4.C#/	4.e/ 4.a/	4.a\	4.cc#\	4.ee\	4.C#/	4.E/	4.A/	4.c#/	.	4.a/
.	.	.	.	.	.	.	.	.	8e/	.
.	.	.	.	.	.	.	.	.	4e/	.
8C#/	8e/ 8a/	8a\	8cc#\	8ee\	8C#/	8E/	8A/	8c#/	.	8a/
=113	=113	=113	=113	=113	=113	=113	=113	=113	=113	=113
2AA/	2e/ 2a/ 2cc#/	2a\	2cc#\	2ee\	2AA/	2E/	2c#\	2e/	2a/	2ee\
2AA/	2e/ 2a/ 2cc#/	2a\	2cc#\	2ee\	2AA/	2E/	2c#\	2e/	2a/	2ee\
=114	=114	=114	=114	=114	=114	=114	=114	=114	=114	=114
4r	4r	4r	4r	4r	4r	4r	4r	4r	4r	4r
8AA/L	8e/ 8a/ 8cc#/L	8a\L	8cc#\L	8ee\L	8AA/L	8A/L	8c#\L	8e/L	8a/L	8ee\L
8AA/J	8e/ 8a/ 8cc#/J	8a\J	8cc#\J	8ee\J	8AA/J	8A/J	8c#\J	8A/J	8a/J	8ff#\J
4.FF#/	4.d/ 4.a/ 4.dd/	4.a\	4.dd\	4.ff#\	4.FF#/	4.A/	4.d\	4.d/	4.a/	4.dd\
8FF#/	8d/ 8a/ 8dd/	8a\	8dd\	8gg\	8FF#/	8A/	8d\	8d/	8a/	8dd\
=115	=115	=115	=115	=115	=115	=115	=115	=115	=115	=115
2.FF#/	2.d/ 2.a/ 2.dd/	2.a\	2.dd\	2.aa\	2.FF#/	2.A/	2.d\	2.d/	2.a/	2.dd\
8FF#/L	8d/ 8a/ 8dd/L	8a\L	8dd\L	8aa\L	8FF#/L	8A/L	8d\L	8d/L	8a/L	8dd\L
8FF#/J	8d/ 8a/ 8dd/J	8a\J	8dd\J	8aa\J	8FF#/J	8A/J	8d\J	8d/J	8a/J	8dd\J
=116	=116	=116	=116	=116	=116	=116	=116	=116	=116	=116
2GG/	2d/ 2b/ 2dd/	2b\	2dd\	2gg\	2GG/	2G/	2B\	2d/	2b\	2dd\
2GG/	2d/ 2g/ 2b/	2b\	2dd\	[2gg\	2GG/	2G/	2B\	2d/	2g/	2b\
=117	=117	=117	=117	=117	=117	=117	=117	=117	=117	=117
*	*^	*	*	*	*	*	*	*	*	*
1D	2g\	1d 1a	1a	1dd	2gg\]	1D	(2A/	(2d\	1d	(2g/	1a
.	2f#\	.	.	.	2ff#\	.	2D/)	2A/)	.	2f#/)	.
*	*v	*v	*	*	*	*	*	*	*	*	*
=118	=118	=118	=118	=118	=118	=118	=118	=118	=118	=118
1GG;	1d; 1g; 1b;	1g;	1b;	1gg;	1GG;	1D;	1B;	1d;	1g;	1g;
==	==	==	==	==	==	==	==	==	==	==
*-	*-	*-	*-	*-	*-	*-	*-	*-	*-	*-
!!!ENC: Craig Stuart Sapp
!!!END: 2004/12/11/
